X:1
T:Title
%%score { ( 1 3 ) | ( 2 4 ) }
L:1/8
Q:1/4=96
M:4/4
K:Bb
V:1 treble nm="Grand Piano"
V:3 treble 
V:2 bass 
V:4 bass 
V:1
 [DF][DF][DF][EG] [DF]>[CE] [B,D][CE] | [DF]2 [DB]2 [Fd]4 | [Fd][Ge]cG A2 c2 | %3
w: Chas.~H.~Gabriel * * * * * * *|||
 [=E_d][F=d][DB][_EG] [DF]4 | [DF][DF][DF][EG] [DF]>[CE] [B,D][CE] | [DF]2 [DB]2 [Fd]4 | %6
w: |||
 dc=Bc dcBc | [=EB]2 [EG]2 F4 | [Fd][Bd][Ad][Gd] [Fd]>[Ec] [DB][EG] | F-[B,F] z E [DF]2 [DF][FB] | %10
w: ||||
 A2 A2 AFAc | z2 .F2 z4 | [Fd][Bd][Ad][Gd] [Fd]>[Ec] [DB][EG] | .D2 F2 z4 | FGAB cdee | %15
w: |||||
 d2 c2 [DB]4 |] %16
w: |
V:2
 [B,,B,][B,,B,][B,,B,][B,,B,] [B,,B,]>[B,,F,] [B,,F,][B,,F,] | [B,,B,]2 [B,,F,]2 [B,,B,]4 | %2
 [F,B,][F,A,][F,A,E][F,A,E] [F,CE]2 [F,A,E]2 | [B,,B,][B,,B,][B,,B,][B,,B,] [B,,B,]4 | %4
 [B,,B,][B,,B,][B,,B,][B,,B,] [B,,B,]>[B,,F,] [B,,F,][B,,F,] | [B,,B,]2 [B,,F,]2 [B,,B,]4 | %6
 [F,B,F][F,A,F][F,_A,F][F,=A,F] [F,B,F][F,A,F][F,_A,F][F,=A,F] | [C,G,]2 [C,B,]2 [F,A,]4 | %8
 [B,,B,][B,,F,][B,,G,][B,,A,] [B,,B,]>[B,,F,] [B,,F,][B,,B,] | %9
 [B,,B,]D,[A,C]C [B,,B,]2 [B,,B,][B,,B,] | [F,CE]2 [F,CE]2 [F,CE][F,A,E][F,CE][F,A,E] | %11
 z G .[B,,A,]2 [B,,F,]2 z2 | [B,,B,][B,,F,][B,,G,][B,,A,] [B,,B,]>[B,,F,] [B,,F,][B,,B,] | %13
 [B,,B,]D,[A,C]C B,,4 | [F,A,E][F,B,E][F,CE][K:treble][F,DF] [F,A,F][F,B,F][F,CF][A,CF] | %15
 [B,F]2[K:bass] [F,E]2 [B,,F,]4 |] %16
V:3
 x8 | x8 | x8 | x8 | x8 | x8 | x8 | x8 | x8 | .D2 F2 z4 | x8 | .[B,DB]2 B-[G,EB] [DB]2 z2 | x8 | %13
 F-[B,F] z E [B,DF]4 | x8 | x8 |] %16
V:4
 x8 | x8 | x8 | x8 | x8 | x8 | x8 | x8 | x8 | z2 F,2 z4 | x8 | B,,2 z2 z4 | x8 | z2 F,2 z4 | %14
 x3[K:treble] x5 | x2[K:bass] x6 |] %16

